X:619
T:Red-House
S:Colin Hume's website,  colinhume.com  - chords can also be printed below the stave.
Q:1/2=116
M:2/2
L:1/8
K:Am
P:A
|: z2 | "Am"A2a4gf | "/"e4c4 | "G"B2g4 fe | "G"d2ed "E7"edcB |\
"Am"A2a4gf | "/"e4c4 | "Dm"dcBA "E7"^GABc | "Am"c2A2 A2 :|
P:B
|: cd | "Am"edcB ABcd | "/"e4 c4 | "G"dcBA GABc | "G"d4 "E7"B4 |\
"Am"edcB ABcd | "/"e4 c4 | "Dm"dcBA "E7"^GABc | "Am"c2A2 A2 :|
P:C
|: cd | "C"e2ee e2cd | "/"e2e2 e2Bc | "G"d2dd d2Bc | "G"d2d2 "E7"d2 cd |\
"Am"e2ee e2cd | "/"e2e2 e2Bc | "Dm"dcBA "E7"^GABc | "Am"c2A2 A2 :|

